Numix-Circle/48x48/apps/hexalate.svg

<?xml version="1.0" encoding="UTF-8" standalone="no"?>
<svg
   xmlns:dc="http://purl.org/dc/elements/1.1/"
   xmlns:cc="http://creativecommons.org/ns#"
   xmlns:rdf="http://www.w3.org/1999/02/22-rdf-syntax-ns#"
   xmlns:svg="http://www.w3.org/2000/svg"
   xmlns="http://www.w3.org/2000/svg"
   xmlns:xlink="http://www.w3.org/1999/xlink"
   xmlns:sodipodi="http://sodipodi.sourceforge.net/DTD/sodipodi-0.dtd"
   xmlns:inkscape="http://www.inkscape.org/namespaces/inkscape"
   viewBox="0 0 48 48"
   id="svg2"
   version="1.1"
   inkscape:version="0.91 r13725"
   sodipodi:docname="hexalate-alt.svg">
  <metadata
     id="metadata77">
    <rdf:RDF>
      <cc:Work
         rdf:about="">
        <dc:format>image/svg+xml</dc:format>
        <dc:type
           rdf:resource="http://purl.org/dc/dcmitype/StillImage" />
        <dc:title />
      </cc:Work>
    </rdf:RDF>
  </metadata>
  <sodipodi:namedview
     pagecolor="#ffffff"
     bordercolor="#666666"
     borderopacity="1"
     objecttolerance="10"
     gridtolerance="10"
     guidetolerance="10"
     inkscape:pageopacity="0"
     inkscape:pageshadow="2"
     inkscape:window-width="1366"
     inkscape:window-height="713"
     id="namedview75"
     showgrid="false"
     showguides="false"
     inkscape:zoom="4"
     inkscape:cx="29.695366"
     inkscape:cy="15.878681"
     inkscape:window-x="0"
     inkscape:window-y="28"
     inkscape:window-maximized="1"
     inkscape:current-layer="svg2">
    <inkscape:grid
       type="xygrid"
       id="grid3405" />
  </sodipodi:namedview>
  <defs
     id="defs4">
    <linearGradient
       inkscape:collect="always"
       xlink:href="#linearGradient3764-0"
       id="linearGradient3396"
       gradientUnits="userSpaceOnUse"
       gradientTransform="matrix(0,-0.65217391,0.65217391,0,8.347825,39.652173)"
       x1="1"
       x2="47" />
    <linearGradient
       id="linearGradient3764-0"
       x1="1"
       x2="47"
       gradientUnits="userSpaceOnUse"
       gradientTransform="matrix(0,-0.65217391,0.65217391,0,8.347825,39.652173)">
      <stop
         stop-color="#3d3d3d"
         stop-opacity="1"
         id="stop7-5"
         style="stop-color:#3d3d3d;stop-opacity:1" />
      <stop
         offset="1"
         stop-color="#474747"
         stop-opacity="1"
         id="stop9-2" />
    </linearGradient>
  </defs>
  <g
     id="g21">
    <path
       d="m 36.31 5 c 5.859 4.062 9.688 10.831 9.688 18.5 c 0 12.426 -10.07 22.5 -22.5 22.5 c -7.669 0 -14.438 -3.828 -18.5 -9.688 c 1.037 1.822 2.306 3.499 3.781 4.969 c 4.085 3.712 9.514 5.969 15.469 5.969 c 12.703 0 23 -10.298 23 -23 c 0 -5.954 -2.256 -11.384 -5.969 -15.469 c -1.469 -1.475 -3.147 -2.744 -4.969 -3.781 z m 4.969 3.781 c 3.854 4.113 6.219 9.637 6.219 15.719 c 0 12.703 -10.297 23 -23 23 c -6.081 0 -11.606 -2.364 -15.719 -6.219 c 4.16 4.144 9.883 6.719 16.219 6.719 c 12.703 0 23 -10.298 23 -23 c 0 -6.335 -2.575 -12.06 -6.719 -16.219 z"
       opacity="0.05"
       id="path23" />
    <path
       d="m 41.28 8.781 c 3.712 4.085 5.969 9.514 5.969 15.469 c 0 12.703 -10.297 23 -23 23 c -5.954 0 -11.384 -2.256 -15.469 -5.969 c 4.113 3.854 9.637 6.219 15.719 6.219 c 12.703 0 23 -10.298 23 -23 c 0 -6.081 -2.364 -11.606 -6.219 -15.719 z"
       opacity="0.1"
       id="path25" />
    <path
       d="m 31.25 2.375 c 8.615 3.154 14.75 11.417 14.75 21.13 c 0 12.426 -10.07 22.5 -22.5 22.5 c -9.708 0 -17.971 -6.135 -21.12 -14.75 a 23 23 0 0 0 44.875 -7 a 23 23 0 0 0 -16 -21.875 z"
       opacity="0.2"
       id="path27" />
  </g>
  <g
     id="g29" />
  <g
     id="g33" />
  <g
     id="g3384"
     transform="matrix(1.5333333,0,0,1.5333333,-12.8,-12.8)">
    <path
       style="fill:url(#linearGradient3396);fill-opacity:1"
       d="m 20.361328,9.4472656 0.0039,0.013672 c 0.675943,-0.1674771 -7.21e-4,-0.00252 -0.0039,-0.013672 z m 0.0039,0.013672 C 17.601092,10.15012 15.140933,11.596371 13.222656,13.580078 15.523691,18.465868 19.885902,21.097248 24,24 23.540364,19.113919 24.699684,14.02779 20.365228,9.4609376 Z M 24,24 C 28.261681,21.219002 32.208458,18.112242 34.777344,13.580078 32.859067,11.596371 30.398908,10.15012 27.634766,9.4609375 24.641413,13.798216 24.661966,18.996611 24,24 Z m 0,0 c 4.658832,1.621196 8.689335,4.310553 14.412109,4.123047 C 38.786674,26.811616 39,25.43172 39,24 39,22.56828 38.786674,21.188384 38.412109,19.876953 33.255738,20.4057 28.572522,22.070016 24,24 Z m 0,0 c 0.784569,5.009626 0.9698,10.248411 3.634766,14.539062 2.764142,-0.689182 5.224301,-2.135433 7.142578,-4.11914 C 32.117465,30.409681 28.603764,26.891035 24,24 Z m 0,0 c -4.532765,2.760946 -8.188695,6.186161 -10.777344,10.419922 1.918277,1.983707 4.378436,3.429958 7.142578,4.11914 C 22.975288,34.515334 23.302774,29.14892 24,24 Z m 0,0 C 19.3908,22.42056 15.230408,20.368691 9.5878906,19.876953 9.2133264,21.188384 9,22.56828 9,24 9,25.43172 9.2133264,26.811616 9.5878906,28.123047 15.334072,27.885769 19.95868,26.294868 24,24 Z m -3.634766,14.539062 -0.0039,0.01367 c 0.0054,-0.0017 0.0027,-0.0096 0.0039,-0.01367 z m 18.046873,-18.662106 0.0098,-0.002 c -9.58e-4,-0.0032 -0.0065,0.0013 -0.0098,0.002 z m -3.626951,-6.304687 -0.0078,0.0078 c 0.930732,1.023088 0.788162,0.862132 0.0078,-0.0078 z m -7.15039,-4.1113285 0.0039,-0.013672 c -0.0046,-0.00108 -0.0026,0.00911 -0.0039,0.013672 z"
       id="path4315"
       inkscape:connector-curvature="0"
       sodipodi:nodetypes="cccccccccccccsccccccccccccscccccccccccccc" />
    <g
       id="g3374">
      <g
         id="g3366">
        <path
           style="fill:#000000;fill-opacity:0.09803922;stroke:none"
           d="M 25 2 C 23.075723 2 21.208302 2.2404092 19.421875 2.6855469 L 25 25 L 30.578125 2.6855469 C 28.791697 2.2404092 26.924275 2 25 2 z M 25 25 L 46.394531 18.878906 A 23 23 0 0 0 41.466797 9.078125 L 25 25 z M 25 25 L 40.5 39.988281 A 23 23 0 0 0 45.90625 30.980469 L 25 25 z M 25 25 L 19.609375 46.568359 A 23 23 0 0 0 24 47 A 23 23 0 0 0 30.279297 46.119141 L 25 25 z M 25 25 L 2.8867188 31.326172 C 3.3944315 33.095832 4.1198937 34.833529 5.0820312 36.5 C 5.9433487 37.991845 6.9555815 39.340489 8.0742188 40.558594 A 23 23 0 0 0 8.5 40.955078 L 25 25 z M 25 25 L 8.4648438 9.0117188 C 7.1861312 10.336241 6.0441688 11.833527 5.0820312 13.5 C 4.1198937 15.166474 3.394433 16.90417 2.8867188 18.673828 L 25 25 z "
           transform="matrix(0.65217393,0,0,0.65217393,8.3478263,8.3478263)"
           id="path3386" />
        <path
           id="path4181"
           d="m 24,23.999984 10.784231,10.426973 c 0.833943,-0.863819 1.578669,-1.840143 2.20615,-2.926973 0.627481,-1.086829 1.10064,-2.219942 1.431758,-3.374068 L 24,23.999984 Z"
           style="fill:#68d87b;fill-opacity:1;stroke:none"
           inkscape:connector-curvature="0" />
        <path
           inkscape:connector-curvature="0"
           style="fill:#f1f05b;fill-opacity:1;stroke:none"
           d="M 24,24 38.422138,19.874068 C 38.091022,18.719943 37.617863,17.58683 36.990382,16.5 36.3629,15.41317 35.618175,14.436847 34.784231,13.573027 L 24,24 Z"
           id="path4189" />
        <path
           style="fill:#dedede;fill-opacity:1;stroke:none"
           d="M 24.000082,24 20.362174,38.552904 C 21.527235,38.843211 22.745119,39 24.000082,39 c 1.254962,0 2.472846,-0.156789 3.637907,-0.447096 L 24.000082,24 Z"
           id="path4156"
           inkscape:connector-curvature="0" />
        <path
           id="path4197"
           d="M 23.999965,24 27.637872,9.4470955 c -1.165061,-0.290307 -2.382945,-0.447096 -3.637907,-0.447096 -1.254963,0 -2.472847,0.156789 -3.637908,0.447096 L 23.999965,24 Z"
           style="fill:#ed7749;fill-opacity:1;stroke:none"
           inkscape:connector-curvature="0" />
        <path
           inkscape:connector-curvature="0"
           style="fill:#dc7096;fill-opacity:1;stroke:none"
           d="M 23.999965,24 13.215734,13.573028 C 12.381791,14.436847 11.637065,15.41317 11.009584,16.5 10.382103,17.58683 9.908944,18.719943 9.577826,19.874068 L 23.999965,24 Z"
           id="path4205" />
        <path
           id="path4213"
           d="M 23.999964,23.999984 9.577826,28.125916 c 0.331117,1.154126 0.804276,2.287239 1.431757,3.374068 0.627482,1.08683 1.372207,2.063154 2.20615,2.926973 L 23.999964,23.999984 Z"
           style="fill:#508fd0;fill-opacity:1;stroke:none"
           inkscape:connector-curvature="0" />
      </g>
    </g>
  </g>
  <g
     id="g71">
    <path
       d="m 40.03 7.531 c 3.712 4.084 5.969 9.514 5.969 15.469 0 12.703 -10.297 23 -23 23 c -5.954 0 -11.384 -2.256 -15.469 -5.969 4.178 4.291 10.01 6.969 16.469 6.969 c 12.703 0 23 -10.298 23 -23 0 -6.462 -2.677 -12.291 -6.969 -16.469 z"
       opacity="0.1"
       id="path73" />
  </g>
</svg>

<svg xmlns="http://www.w3.org/2000/svg" viewBox="0 0 48 48">
 <defs>
  <linearGradient id="linearGradient3396" gradientUnits="userSpaceOnUse" gradientTransform="matrix(0,-0.65217391,0.65217391,0,8.347825,39.652173)" x1="1" x2="47">
   <stop style="stop-color:#3d3d3d;stop-opacity:1"/>
   <stop offset="1" style="stop-color:#474747;stop-opacity:1"/>
  </linearGradient>
 </defs>
 <g>
  <path d="m 36.31 5 c 5.859 4.062 9.688 10.831 9.688 18.5 c 0 12.426 -10.07 22.5 -22.5 22.5 c -7.669 0 -14.438 -3.828 -18.5 -9.688 c 1.037 1.822 2.306 3.499 3.781 4.969 c 4.085 3.712 9.514 5.969 15.469 5.969 c 12.703 0 23 -10.298 23 -23 c 0 -5.954 -2.256 -11.384 -5.969 -15.469 c -1.469 -1.475 -3.147 -2.744 -4.969 -3.781 z m 4.969 3.781 c 3.854 4.113 6.219 9.637 6.219 15.719 c 0 12.703 -10.297 23 -23 23 c -6.081 0 -11.606 -2.364 -15.719 -6.219 c 4.16 4.144 9.883 6.719 16.219 6.719 c 12.703 0 23 -10.298 23 -23 c 0 -6.335 -2.575 -12.06 -6.719 -16.219 z" style="opacity:0.05"/>
  <path d="m 41.28 8.781 c 3.712 4.085 5.969 9.514 5.969 15.469 c 0 12.703 -10.297 23 -23 23 c -5.954 0 -11.384 -2.256 -15.469 -5.969 c 4.113 3.854 9.637 6.219 15.719 6.219 c 12.703 0 23 -10.298 23 -23 c 0 -6.081 -2.364 -11.606 -6.219 -15.719 z" style="opacity:0.1"/>
  <path d="m 31.25 2.375 c 8.615 3.154 14.75 11.417 14.75 21.13 c 0 12.426 -10.07 22.5 -22.5 22.5 c -9.708 0 -17.971 -6.135 -21.12 -14.75 a 23 23 0 0 0 44.875 -7 a 23 23 0 0 0 -16 -21.875 z" style="opacity:0.2"/>
 </g>
 <g transform="matrix(1.5333333,0,0,1.5333333,-12.8,-12.8)">
  <path d="m 20.361 9.447 0.004 0.014 c 0.676 -0.167 0 -0.003 -0.004 -0.014 z m 0.004 0.014 c -2.764 0.689 -5.224 2.135 -7.143 4.119 2.301 4.886 6.663 7.517 10.777 10.42 -0.46 -4.886 0.7 -9.972 -3.635 -14.539 m 3.635 14.539 c 4.262 -2.781 8.208 -5.888 10.777 -10.42 -1.918 -1.984 -4.378 -3.43 -7.143 -4.119 -2.993 4.337 -2.973 9.536 -3.635 14.539 m 0 0 c 4.659 1.621 8.689 4.311 14.412 4.123 c 0.375 -1.311 0.588 -2.691 0.588 -4.123 0 -1.432 -0.213 -2.812 -0.588 -4.123 -5.156 0.529 -9.84 2.193 -14.412 4.123 m 0 0 c 0.785 5.01 0.97 10.248 3.635 14.539 2.764 -0.689 5.224 -2.135 7.143 -4.119 c -2.66 -4.01 -6.174 -7.529 -10.777 -10.42 m 0 0 c -4.533 2.761 -8.189 6.186 -10.777 10.42 1.918 1.984 4.378 3.43 7.143 4.119 c 2.61 -4.02 2.938 -9.39 3.635 -14.539 m 0 0 c -4.609 -1.579 -8.77 -3.631 -14.412 -4.123 -0.375 1.311 -0.588 2.691 -0.588 4.123 0 1.432 0.213 2.812 0.588 4.123 5.746 -0.237 10.371 -1.828 14.412 -4.123 m -3.635 14.539 -0.004 0.014 c 0.005 -0.002 0.003 -0.0001 0.004 -0.014 z m 18.05 -18.662 0.0001 -0.002 c 0 -0.003 -0.007 0 -0.0001 0.002 z m -3.627 -6.305 -0.008 0.008 c 0.931 1.023 0.788 0.862 0.008 -0.008 z m -7.15 -4.111 0.004 -0.014 c -0.005 0 -0.003 0.009 -0.004 0.014 z" style="fill:url(#linearGradient3396);fill-opacity:1"/>
  <g>
   <g>
    <path d="m 25 2 c -1.924 0 -3.792 0.24 -5.578 0.686 l 5.578 22.314 l 5.578 -22.314 c -1.786 -0.445 -3.654 -0.686 -5.578 -0.686 z m 0 23 l 21.395 -6.121 a 23 23 0 0 0 -4.928 -9.801 l -16.467 15.922 z m 0 0 l 15.5 14.988 a 23 23 0 0 0 5.406 -9.01 l -20.906 -5.98 z m 0 0 l -5.391 21.568 a 23 23 0 0 0 4.391 0.432 a 23 23 0 0 0 6.279 -0.881 l -5.279 -21.12 z m 0 0 l -22.11 6.326 c 0.508 1.77 1.233 3.507 2.195 5.174 c 0.861 1.492 1.874 2.84 2.992 4.059 a 23 23 0 0 0 0.426 0.396 l 16.5 -15.955 z m 0 0 l -16.535 -15.988 c -1.279 1.325 -2.421 2.822 -3.383 4.488 c -0.962 1.666 -1.688 3.404 -2.195 5.174 l 22.11 6.326 z" transform="matrix(0.65217393,0,0,0.65217393,8.3478263,8.3478263)" style="fill:#000;fill-opacity:0.098;stroke:none"/>
    <path d="m 24 24 10.784 10.427 c 0.834 -0.864 1.579 -1.84 2.206 -2.927 0.627 -1.087 1.101 -2.22 1.432 -3.374 l -14.422 -4.126" style="fill:#68d87b;fill-opacity:1;stroke:none"/>
    <path d="m 24 24 14.422 -4.126 c -0.331 -1.154 -0.804 -2.287 -1.432 -3.374 -0.627 -1.087 -1.372 -2.063 -2.206 -2.927 l -10.784 10.427" style="fill:#f1f05b;fill-opacity:1;stroke:none"/>
    <path d="m 24 24 -3.638 14.553 c 1.165 0.29 2.383 0.447 3.638 0.447 c 1.255 0 2.473 -0.157 3.638 -0.447 l -3.638 -14.553" style="fill:#dedede;fill-opacity:1;stroke:none"/>
    <path d="m 24 24 3.638 -14.553 c -1.165 -0.29 -2.383 -0.447 -3.638 -0.447 -1.255 0 -2.473 0.157 -3.638 0.447 l 3.638 14.553" style="fill:#ed7749;fill-opacity:1;stroke:none"/>
    <path d="m 24 24 -10.784 -10.427 c -0.834 0.864 -1.579 1.84 -2.206 2.927 -0.627 1.087 -1.101 2.22 -1.432 3.374 l 14.422 4.126" style="fill:#dc7096;fill-opacity:1;stroke:none"/>
    <path d="m 24 24 -14.422 4.126 c 0.331 1.154 0.804 2.287 1.432 3.374 0.627 1.087 1.372 2.063 2.206 2.927 l 10.784 -10.427" style="fill:#508fd0;fill-opacity:1;stroke:none"/>
   </g>
  </g>
 </g>
 <g>
  <path d="m 40.03 7.531 c 3.712 4.084 5.969 9.514 5.969 15.469 0 12.703 -10.297 23 -23 23 c -5.954 0 -11.384 -2.256 -15.469 -5.969 4.178 4.291 10.01 6.969 16.469 6.969 c 12.703 0 23 -10.298 23 -23 0 -6.462 -2.677 -12.291 -6.969 -16.469 z" style="opacity:0.1"/>
 </g>
</svg>
